!!!!SEGMENT: pl-kk--kk-i-3--010-001_anonim--sabbativis-kirie.krn
!!!cenid: 15xx:607
!!!COM: Anonim
!!!COM-rismID: pe30004985
!!!CDT:
!!!CNT:
!!!OPR: Sabbativis
!!!OTL: Kirie
!!!OMV: 001
!!!PDT:
!!!AGN:
!!!SMS-siglum: PL-Kk
!!!SMS-shelfmark: Kk.I.3
!!!SMS-shelfwork: 010-001 M
!!!SMS-variant:
!!!SMS-altvar:
!!!NIFC-rismSourceID: 1001145493
!!!NIFC-islandoraID: pl-kk:1170
!!!URL-pdf-islandora: https://repozytorium.nifc.pl/islandora/object/pl-kk%3A1170/datastream/PDF/view
!!!URL-scan: https://polish.musicsources.pl/pl/lokalizacje/galeria/rekopisy/5919 @EN{Scan on Polish Music Sources Website} @PL{Skany w portalu Dziedzictwo Muzyki Polskiej w otwartym dostępie}
!!!ONB-nifc: UWAGA: Discantus (s. 51v-54r, skan 0054-0056), Tenor (s. 37r-v, skan 0209-0210), Bassus (s. 48v-50v, skan 0352-0354)
!!!AIN: 1 bass 1 empty 1 tenor
!!!key: d:dor
**kern	**text	**kern	**text	**kern	**text
*part3	*part3	*part2	*part2	*part1	*part1
*staff3	*staff3	*staff2	*staff2	*staff1	*staff1
*Ibass	*	*Itenor	*	*Iempty	*
*I"[Bassus]	*	*I"[Tenor]	*	*I"[Discantus]	*
*I'B	*	*I'T	*	*I'S	*
*ICvox	*	*ICvox	*	*ICvox	*
*clefF4	*	*clefF2	*	*clefC3	*
*k[b-]	*	*k[]	*	*k[]	*
*d:dor	*	*d:dor	*	*d:dor	*
*M2/1	*	*M2/1	*	*M2/1	*
=1-	=1-	=1-	=1-	=1-	=1-
*2\right	*	*2\right	*	*2\right	*
!LO:TX:t=Sabbatiuis:color=red	!	!LO:TX:t=P:problem=klucz F2	!	!LO:TX:a:t=P:problem=warstwa nutowa konsultowana z JI	!
!	!	!	!	!LO:TX:t=Sabbatiuis:color=red	!
1D	Ki-	1D	Ky	1d	Ki-
*	*	*lig	*	*	*
1BB-	-ri-	1F	-ri-	2d/	-ri-
.	.	.	.	1d\	-e
=2-	=2-	=2-	=2-	=2-	=2-
2BB-/	-e	1F	-e	.	.
2D/	.	.	.	2f/	.
*	*	*Xlig	*	*	*
2C/	.	1G	.	2e/	.
2BB-/	.	.	.	2d/	.
=3-	=3-	=3-	=3-	=3-	=3-
*	*	*lig	*	*	*
2AA/	.	1A	.	2c/	.
2FF/	.	.	.	1f	.
1GG	.	1G	.	.	.
.	.	.	.	1e\	.
=4-	=4-	=4-	=4-	=4-	=4-
1C	.	1E	.	.	.
.	.	.	.	1c	.
*	*	*Xlig	*	*	*
*	*	*lig	*	*	*
2FF/	.	1F	.	.	.
2F\	.	.	.	1d\	.
=5-	=5-	=5-	=5-	=5-	=5-
1G	.	1E	.	.	.
.	.	.	.	2c/	.
*custos:F	*	*	*	*	*
1F	.	1D	.	1d	.
*	*	*Xlig	*	*	*
!LO:LB:g=original	!	!	!	!LO:LB:g=original	!
=6-	=6-	=6-	=6-	=6-	=6-
*	*	*lig	*	*	*
2F/	.	1F	.	2d/	.
2FF/	.	.	.	1c	.
1GG	.	1D	.	.	.
!	!	!	!	!LO:TX:a:t=LO&colon;SIC&colon;s=2B-	!
.	.	.	.	2B-y/	.
=7-	=7-	=7-	=7-	=7-	=7-
1AA	.	1C	.	1c	.
*	*	*Xlig	*	*	*
*	*	*lig	*	*	*
1BB-	.	1D	.	2F/	.
.	.	.	.	2G/	.
=8-	=8-	=8-	=8-	=8-	=8-
2FF/	.	1C	.	2A/	.
2AA/	.	.	.	1c	.
*	*	*Xlig	*	*	*
!	!	!LO:TX:t=Sabtis:color=red	!	!	!
1GG	.	1D	.	.	.
!	!	!	!	!LO:TX:a:t=LO&colon;SIC&colon;s=2B-	!
.	.	.	.	2B-y/	.
=9-	=9-	=9-	=9-	=9-	=9-
1FF	.	1F	.	2c/	.
.	.	.	.	2A/	.
1C	.	1E	.	1G	.
=10-	=10-	=10-	=10-	=10-	=10-
*lig	*	*	*	*	*
1D	.	1F	.	2F/	.
.	.	.	.	1f	.
*	*	*lig	*	*	*
1GG	.	1G	.	.	.
.	.	.	.	1d\	.
!	!	!	!	!LO:TX:t=P:problem=niewyraźne źródło	!
*Xlig	*	*	*	*	*
=11-	=11-	=11-	=11-	=11-	=11-
*lig	*	*	*	*	*
1C	.	1E	.	.	.
.	.	.	.	2r	.
*	*	*Xlig	*	*	*
!	!	!	!	!LO:LB:g=original	!
1D	.	1F	.	2A/	.
.	.	.	.	1d\	.
*Xlig	*	*	*	*	*
=12-	=12-	=12-	=12-	=12-	=12-
*	*	*lig	*	*	*
1AA	ley--	1E	ley--	.	.
.	.	.	.	2c/	ley--
*	*	*custos:AA	*	*	*
!	!	!LO:TX:t=P:problem=kreska pseudotaktowa	!	!	!
1D;	-son	1D	-ſon	1d	-son
*	*	*Xlig	*	*	*
!	!	!LO:LB:g=original	!	!	!
=13||-	=13||-	=13||-	=13||-	=13||-	=13||-
*	*	*clefF3	*	*	*
*custos:G	*	*	*	*	*
1A	Ki-	1AA	Ki-	0e	Ki-
!LO:LB:g=original	!	!	!	!	!
1G	-rie	1C	-ri-	.	.
=14-	=14-	=14-	=14-	=14-	=14-
2F/	.	1D	-e	1d	-rie
1B-X	.	.	.	.	.
*	*	*lig	*	*	*
.	.	1D	.	2d/	.
1A\	.	.	.	1f\	.
=15-	=15-	=15-	=15-	=15-	=15-
.	.	1C	.	.	.
2G\	.	.	.	2e/	.
*	*	*Xlig	*	*	*
*	*	*lig	*	*	*
1F	.	1D	.	2d/	.
.	.	.	.	1f\	.
=16-	=16-	=16-	=16-	=16-	=16-
1G	.	1C	.	.	.
.	.	.	.	2e/	.
*	*	*Xlig	*	*	*
1F	.	1D	.	1f	.
=17-	=17-	=17-	=17-	=17-	=17-
2BB-X/	.	1F	.	1d	.
2D/	.	.	.	.	.
*	*	*	*	*custos:e	*
1C	.	1E	.	1e	.
!	!	!	!	!LO:LB:g=original	!
=18-	=18-	=18-	=18-	=18-	=18-
2AA/	.	1F	.	2c/	.
2BB-/	.	.	.	1d	.
*	*	*lig	*	*	*
2GG/	.	1G	.	.	.
1G\	.	.	.	2d/	.
=19-	=19-	=19-	=19-	=19-	=19-
!	!	!	!	!LO:TX:a:t=LO&colon;SIC&colon;s=1B-	!
.	.	1E	.	1B-y	.
2G\	.	.	.	.	.
*	*	*Xlig	*	*	*
*custos:A	*	*	*	*	*
2A\	.	1F	.	2A/	.
!LO:LB:g=original	!	!	!	!	!
2F/	.	.	.	1d\	ley-
=20-	=20-	=20-	=20-	=20-	=20-
*	*	*lig	*	*	*
1G	-ley-	1E	ley-	.	.
.	.	.	.	2c/	-son
!	!	!LO:TX:t=P:problem=kreska pseudotaktowa	!	!	!
1F;	-son	1D	-ſon	1d	.
*	*	*Xlig	*	*	*
=21||-	=21||-	=21||-	=21||-	=21||-	=21||-
1D	Ki-	1D	Ki-	1d	Ki-
*	*	*lig	*	*	*
1BB-	-rie	1F	-ri-	2d/	-rie
.	.	.	.	1d\	.
=22-	=22-	=22-	=22-	=22-	=22-
2BB-/	.	1F	-e	.	.
2D/	.	.	.	2f/	.
*	*	*Xlig	*	*	*
2C/	.	1G	.	2e/	.
2BB-/	.	.	.	2d/	.
=23-	=23-	=23-	=23-	=23-	=23-
*	*	*lig	*	*	*
2AA/	.	1A	.	2c/	.
2FF/	.	.	.	1f	.
1GG	.	1G	.	.	.
*	*	*	*	*custos:c	*
.	.	.	.	1e\	.
!	!	!	!	!LO:LB:g=original	!
=24-	=24-	=24-	=24-	=24-	=24-
1C	.	1E	.	.	.
.	.	.	.	1c	.
*	*	*Xlig	*	*	*
2FF/	.	1F	.	.	.
2F\	.	.	.	1d\	.
=25-	=25-	=25-	=25-	=25-	=25-
*custos:F	*	*	*	*	*
*	*	*lig	*	*	*
1G	.	1E	.	.	.
!LO:LB:g=original	!	!	!	!	!
.	.	.	.	2c/	.
1F	.	1D	.	1d	.
*	*	*Xlig	*	*	*
=26-	=26-	=26-	=26-	=26-	=26-
*	*	*lig	*	*	*
2F/	.	1F	.	2d/	.
2FF/	.	.	.	1c	.
1GG	.	1D	.	.	.
.	.	.	.	2B-y/	.
=27-	=27-	=27-	=27-	=27-	=27-
*	*	*custos:D	*	*	*
1AA	.	1C	.	1c	.
*	*	*Xlig	*	*	*
!	!	!LO:LB:g=original	!	!	!
*	*	*lig	*	*	*
1BB-	.	1D	.	2F/	.
.	.	.	.	2G/	.
=28-	=28-	=28-	=28-	=28-	=28-
2FF/	.	1C	.	2A/	.
2AA/	.	.	.	1c	.
*	*	*Xlig	*	*	*
1GG	.	1D	.	.	.
.	.	.	.	2B-y/	.
=29-	=29-	=29-	=29-	=29-	=29-
1FF	.	1F	.	2c/	.
.	.	.	.	2A/	.
1C	.	1E	.	1G	.
=30-	=30-	=30-	=30-	=30-	=30-
*	*	*	*	*custos:f	*
1D	.	1F	.	2F/	.
!	!	!	!	!LO:LB:g=original	!
.	.	.	.	1f	.
*	*	*lig	*	*	*
1GG	.	1G	.	.	.
.	.	.	.	2d/	.
=31-	=31-	=31-	=31-	=31-	=31-
1C	.	1E	.	1e	.
*lig	*	*Xlig	*	*	*
1D	-ley-	1F	.	2A/	.
.	.	.	.	1d\	.
=32-	=32-	=32-	=32-	=32-	=32-
!	!	!LO:TX:t=P:problem=niewyraźne, uszkodzone źródło	!	!	!
1AA	.	1E	ley--	.	.
.	.	.	.	2c/	-ley-
*Xlig	*	*	*	*	*
*custos:AA	*	*	*	*	*
!	!	!LO:TX:t=P:problem=kreska pseudotaktowa	!	!	!
1D;	-son	1D	-ſon	1d;	-ſon
!LO:LB:g=original	!	!	!	!	!
=33||-	=33||-	=33||-	=33||-	=33||-	=33||-
*	*	*	*	*	*
1AA	CH_Cri-	1A	Chry	1e	Cri-
1D	-ste	1A	-ſte	1f	-ste
=34-	=34-	=34-	=34-	=34-	=34-
*	*	*lig	*	*	*
2GG/	.	1G	.	2d/	.
1C	.	.	.	1e	.
.	.	1G	.	.	.
2C/	.	.	.	1g\	.
*	*	*Xlig	*	*	*
=35-	=35-	=35-	=35-	=35-	=35-
*	*	*lig	*	*	*
2GG/	.	1B-y	.	.	.
1G	.	.	.	2d/	.
*	*	*	*	*custos:f	*
.	.	1A	.	2e/	.
!	!	!	!	!LO:LB:g=original	!
2F\	.	.	.	2f\	.
=36-	=36-	=36-	=36-	=36-	=36-
1G	.	1G	.	2d/	.
.	.	.	.	1g	.
*	*	*Xlig	*	*	*
2D/	.	1A	.	.	.
2F/	.	.	.	1f\	.
=37-	=37-	=37-	=37-	=37-	=37-
1C	.	1G	.	.	.
.	.	.	.	2e\	.
*	*	*lig	*	*	*
1D	.	1F	.	1f	.
=38-	=38-	=38-	=38-	=38-	=38-
2BB-/	.	1F	.	2d/	.
2AA/	.	.	.	2c/	.
*	*	*Xlig	*	*	*
1GG	.	1G	.	1B-y	.
=39-	=39-	=39-	=39-	=39-	=39-
2FF/	.	1A	.	1A	.
*custos:E	*	*	*	*	*
1F	.	.	.	.	.
*	*	*lig	*	*	*
!	!	!LO:TX:a:t=LO&colon;SIC&colon;s=1B-	!	!	!
.	.	1B-y	.	1G	.
!LO:PB:g=original	!	!	!	!	!
2E/	.	.	.	.	.
=40-	=40-	=40-	=40-	=40-	=40-
1F	.	1A	.	2F/	.
.	.	.	.	1f	ley-
*	*	*Xlig	*	*	*
1C	.	1G	ley-	.	.
.	.	.	.	2e\	-son
=41-	=41-	=41-	=41-	=41-	=41-
!	!	!LO:TX:t=P:problem=kreska pseudotaktowa	!	!	!
0FF;	.	0A	-ſon	0f	.
=42||-	=42||-	=42||-	=42||-	=42||-	=42||-
*	*	*lig	*	*	*
*	*	*	*	*custos:e	*
1FF	Cri-	1A	Chri-	1f	cri-
!	!	!	!	!LO:PB:g=original	!
*lig	*	*	*	*	*
1C	-ste	1G	.	1e	.
*	*	*Xlig	*	*	*
=43-	=43-	=43-	=43-	=43-	=43-
*	*	*custos:F	*	*	*
1D	.	1F	.	1d	.
*Xlig	*	*	*	*	*
!	!	!LO:LB:g=original	!	!	!
2BB-/	.	1G	.	2d/	.
1C/	.	.	.	1e\	.
=44-	=44-	=44-	=44-	=44-	=44-
.	.	1E	.	.	.
1AA	.	.	.	1c	-ste
.	.	1F	-ſte	.	.
2BB-/	.	.	.	2d/	.
=45-	=45-	=45-	=45-	=45-	=45-
*	*	*lig	*	*	*
2C/	.	1E	.	2e/	.
2AA/	.	.	.	2c/	.
*custos:AA	*	*	*	*	*
1BB-	.	1D	.	1d	.
*	*	*Xlig	*	*	*
!LO:LB:g=original	!	!	!	!	!
=46-	=46-	=46-	=46-	=46-	=46-
*	*	*lig	*	*	*
2AA/	.	1F	.	2c/	.
2FF/	.	.	.	1c	.
!	!	!LO:TX:t=P:problem=niewyraźne źródło	!	!	!
1GG	.	1D	.	.	.
.	.	.	.	2B-y/	.
*	*	*Xlig	*	*	*
=47-	=47-	=47-	=47-	=47-	=47-
1AA	.	1C	.	2c/	.
.	.	.	.	2F/	.
*	*	*lig	*	*	*
1GG	.	1D	.	1G	.
=48-	=48-	=48-	=48-	=48-	=48-
1G	.	1C	.	1E	.
*	*	*Xlig	*	*	*
2F\	.	1D	.	2D/	.
!	!	!	!	!LO:LB:g=original	!
1D\	.	.	.	1d\	.
=49-	=49-	=49-	=49-	=49-	=49-
.	.	1F	.	.	.
2F\	.	.	.	2A/	.
!	!	!	!	!LO:TX:a:t=LO&colon;SIC&colon;s=2B-	!
2G\	.	1E	.	2B-y/	.
2C/	.	.	.	2c/	.
=50-	=50-	=50-	=50-	=50-	=50-
1D	.	1F	.	1A	.
*	*	*lig	*	*	*
!	!	!	!	!LO:TX:a:t=LO&colon;SIC&colon;s=2B-	!
2GG/	.	1G	.	2B-y/	.
1C/	.	.	.	1G/	.
=51-	=51-	=51-	=51-	=51-	=51-
.	.	1E	.	.	.
1AA	.	.	.	2c/	.
*	*	*Xlig	*	*	*
.	.	1F	.	2A/	.
2FF/	.	.	.	1d\	-ley-
=52-	=52-	=52-	=52-	=52-	=52-
*custos:AA	*	*	*	*	*
*	*	*lig	*	*	*
2GG/	.	1E	ley-	.	.
!LO:LB:g=original	!	!	!	!	!
2AA/	ley-	.	.	2c/	.
!	!	!LO:TX:t=P:problem=kreska pseudotaktowa	!	!	!
1BB-;	-son	1D	-ſon	1d	-son
*	*	*Xlig	*	*	*
=53||-	=53||-	=53||-	=53||-	=53||-	=53||-
1AA	cri-	1A	Chry	1e	Cri-
*	*	*lig	*	*	*
1D	-ste	1A	-ſte	1f	-ste
=54-	=54-	=54-	=54-	=54-	=54-
2GG/	.	1G	.	2d\	.
1C	.	.	.	1e	.
*	*	*Xlig	*	*	*
!	!	!	!	!LO:LB:g=original	!
.	.	1G	.	.	.
2C/	.	.	.	1g\	.
=55-	=55-	=55-	=55-	=55-	=55-
!	!	!LO:TX:a:t=LO&colon;SIC&colon;s=1B-	!	!	!
2GG/	.	1B-y	.	.	.
1G	.	.	.	2d/	.
.	.	1A	.	2e\	.
2F\	.	.	.	2f\	.
=56-	=56-	=56-	=56-	=56-	=56-
1G	.	1G	.	2d/	.
.	.	.	.	1g	.
2D/	.	1A	.	.	.
2F\	.	.	.	1f\	.
=57-	=57-	=57-	=57-	=57-	=57-
*custos:D	*	*	*	*	*
1C	.	1G	.	.	.
.	.	.	.	2e/	.
!LO:LB:g=original	!	!	!	!	!
*	*	*lig	*	*	*
1D	.	1F	.	1f	.
=58-	=58-	=58-	=58-	=58-	=58-
*	*	*custos:G	*	*	*
2BB-/	.	1F	.	2d/	.
2AA/	.	.	.	2c/	.
*	*	*Xlig	*	*	*
!	!	!LO:PB:g=original	!	!LO:TX:a:t=LO&colon;SIC&colon;s=1B-	!
1GG	.	1G	.	1B-y	.
=59-	=59-	=59-	=59-	=59-	=59-
2FF/	.	1A	.	1A	.
1F	.	.	.	.	.
!	!	!LO:TX:a:t=LO&colon;SIC&colon;s=1B-	!	!	!
.	.	1B-y	.	1G	.
2E\	.	.	.	.	.
=60-	=60-	=60-	=60-	=60-	=60-
1F	.	1A	.	2F/	.
.	.	.	.	1f	-ley-
1C	ley-	1G	ley-	.	.
.	.	.	.	2e\	.
=61-	=61-	=61-	=61-	=61-	=61-
!	!	!LO:TX:t=P:problem=kreska pseudotaktowa	!	!	!
*	*	*lig	*	*	*
0FF;	-son	1A	-ſon	0f;<	-son
.	.	1A	.	.	.
*	*	*Xlig	*	*	*
!	!	!	!	!LO:LB:g=original	!
=62||-	=62||-	=62||-	=62||-	=62||-	=62||-
*k[b-]	*	*	*	*	*
*lig	*	*	*	*	*
1F	Ki-	1A	Ki-	1c	Ki-
1E	-ri-	1c	-ri-	1e	-ri-
*Xlig	*	*	*	*	*
=63-	=63-	=63-	=63-	=63-	=63-
2D/	.	1d	-e	1f	-e
2BB-/	-e	.	.	.	.
*	*	*lig	*	*lig	*
1D	.	1d	.	1f	.
=64-	=64-	=64-	=64-	=64-	=64-
*custos:C	*	*	*	*	*
2AA/	.	1c	.	1e	.
!LO:LB:g=original	!	!	!	!	!
2C/	.	.	.	.	.
*	*	*Xlig	*	*Xlig	*
*	*	*lig	*	*	*
1BB-	.	1d	.	1f	.
=65-	=65-	=65-	=65-	=65-	=65-
2FF/	.	1A	.	2f\	.
2F\	.	.	.	2c/	.
2E/	.	1G	.	2e/	.
2G\	.	.	.	2d/	.
*	*	*Xlig	*	*	*
=66-	=66-	=66-	=66-	=66-	=66-
*lig	*	*	*	*	*
1F	.	1A	.	1f	.
!	!	!LO:TX:a:t=LO&colon;SIC&colon;s=1B-	!	!	!
1C	.	1B-y	.	2f\	.
.	.	.	.	2d/	.
*Xlig	*	*	*	*	*
=67-	=67-	=67-	=67-	=67-	=67-
1F	.	1A	.	2c/	.
.	.	.	.	2d/	.
1C	.	1G	.	2e/	.
.	.	.	.	1g\	.
=68-	=68-	=68-	=68-	=68-	=68-
1FF	.	1A	.	.	.
.	.	.	.	1f	.
1C	.	1G	.	.	.
.	.	.	.	2e\	.
!	!	!	!	!LO:LB:g=original	!
=69-	=69-	=69-	=69-	=69-	=69-
*	*	*lig	*	*	*
1D	.	1F	.	1f	.
2D/	.	1F	.	2f\	.
1BB-/	.	.	.	1d\	.
*	*	*Xlig	*	*	*
=70-	=70-	=70-	=70-	=70-	=70-
.	.	1G	.	.	.
*custos:AA	*	*	*	*	*
2C/	.	.	.	2e/	.
!LO:LB:g=original	!	!	!	!	!
2AA/	.	1A	.	2c/	.
2FF/	.	.	.	1A/	.
=71-	=71-	=71-	=71-	=71-	=71-
!	!	!LO:TX:a:t=LO&colon;SIC&colon;s=1B-	!	!	!
1GG	.	1B-y	.	.	.
.	.	.	.	2G/	.
2FF/	.	1A	.	2A/	.
1F\	.	.	.	2F/	.
=72-	=72-	=72-	=72-	=72-	=72-
.	.	1G	ley-	1c	-ley-
2E/	ley-	.	.	.	.
*	*	*custos:A	*	*	*
1F;	-ſon	1A	-ſon	1c;	-son
!	!	!LO:LB:g=original	!	!	!
=73||-	=73||-	=73||-	=73||-	=73||-	=73||-
*	*	*lig	*	*	*
1FF	Ki-	1A	Ki-	1f	Ki-
1C	-rie	1G	-rie	1e	.
*	*	*Xlig	*	*	*
=74-	=74-	=74-	=74-	=74-	=74-
1D	.	1F	.	1d	-ri-
2BB-/	.	1G	.	2d/	.
1C/	.	.	.	1e\	.
!	!	!	!	!LO:LB:g=original	!
=75-	=75-	=75-	=75-	=75-	=75-
.	.	1E	.	.	.
1AA	.	.	.	1c	-e
.	.	1F	.	.	.
2BB-/	.	.	.	2d/	.
=76-	=76-	=76-	=76-	=76-	=76-
*custos:AA	*	*	*	*	*
*	*	*lig	*	*	*
2C/	.	1E	.	2e/	.
!LO:LB:g=original	!	!	!	!	!
2AA/	.	.	.	2c/	.
1BB-	.	1D	.	1d	.
*	*	*Xlig	*	*	*
=77-	=77-	=77-	=77-	=77-	=77-
2AA/	.	1F	.	2c/	.
2FF/	.	.	.	1c	.
*	*	*lig	*	*	*
1GG	.	1D	.	.	.
!	!	!	!	!LO:TX:a:t=LO&colon;SIC&colon;s=2B-	!
.	.	.	.	2B-y/	.
=78-	=78-	=78-	=78-	=78-	=78-
1AA	.	1C	.	2c/	.
.	.	.	.	2F/	.
*	*	*Xlig	*	*	*
*	*	*lig	*	*	*
1GG	.	1D	.	1G	.
=79-	=79-	=79-	=79-	=79-	=79-
1G	.	1C	.	1E	.
*	*	*Xlig	*	*	*
2F\	.	1D	.	2D/	.
1D\	.	.	.	1d\	.
=80-	=80-	=80-	=80-	=80-	=80-
.	.	1F	.	.	.
2F\	.	.	.	2A/	.
!	!	!	!	!LO:TX:a:t=LO&colon;SIC&colon;s=2B-	!
2G\	.	1E	.	2B-y/	.
*	*	*	*	*custos:c	*
2C/	.	.	.	2c/	.
!	!	!	!	!LO:LB:g=original	!
=81-	=81-	=81-	=81-	=81-	=81-
1D	.	1F	.	1A	.
*	*	*lig	*	*	*
!	!	!	!	!LO:TX:a:t=LO&colon;SIC&colon;s=2B-	!
2GG/	.	1G	.	2B-y/	.
1C/	.	.	.	1G/	.
=82-	=82-	=82-	=82-	=82-	=82-
.	.	1E	.	.	.
*custos:FF	*	*	*	*	*
1AA	.	.	.	2c/	.
*	*	*Xlig	*	*	*
.	.	1F	.	2A/	.
!LO:LB:g=original	!	!	!	!	!
2FF/	.	.	.	1d\	-ley-
=83-	=83-	=83-	=83-	=83-	=83-
*	*	*lig	*	*	*
2GG/	ley-	1E	ley-	.	.
2AA/	.	.	.	2c/	.
!	!	!LO:TX:t=P:problem=kreska pseudotaktowa	!	!	!
1BB-;	-son	1D	-ſon	1d	-son
*	*	*Xlig	*	*	*
=84||-	=84||-	=84||-	=84||-	=84||-	=84||-
*lig	*	*	*	*	*
1F	Ki-	1A	Ki-	1c	Ki-
1E	-rie	1c	-rie	1e	-ri-
*Xlig	*	*	*	*	*
=85-	=85-	=85-	=85-	=85-	=85-
2D/	.	1d	.	1f	-e
2BB-/	.	.	.	.	.
*	*	*lig	*	*	*
1D	.	1d	.	1f	.
=86-	=86-	=86-	=86-	=86-	=86-
2AA/	.	1c	.	1e	.
2C/	.	.	.	.	.
*	*	*Xlig	*	*	*
*	*	*custos:A	*	*	*
1BB-	.	1d	.	1f	.
!	!	!LO:LB:g=original	!	!	!
=87-	=87-	=87-	=87-	=87-	=87-
*	*	*lig	*	*	*
2FF/	.	1A	.	2f/	.
*	*	*	*	*custos:e	*
!	!	!	!	!LO:TX:t=P:JI:problem= To, co zasłania ten fragment, to wklejona kartka. Skan 0056 zawiera całą stronę	!
2F\	.	.	.	2c/	.
*custos:G	*	*	*	*	*
!	!	!	!LO:LB:g=original	!	!
2E/	.	1G	.	2e/	.
!LO:LB:g=original	!	!	!	!	!
2G\	.	.	.	2d/	.
*	*	*Xlig	*	*	*
=88-	=88-	=88-	=88-	=88-	=88-
*lig	*	*	*	*	*
1F	.	1A	.	1f	.
!	!	!LO:TX:a:t=LO&colon;SIC&colon;s=1B-	!	!	!
1BB-	.	1B-y	.	2f\	.
.	.	.	.	2d/	.
*Xlig	*	*	*	*	*
=89-	=89-	=89-	=89-	=89-	=89-
*lig	*	*	*	*	*
1F	.	1A	.	2c/	.
.	.	.	.	2d/	.
1C	.	1G	.	2e/	.
.	.	.	.	1g\	.
*Xlig	*	*	*	*	*
=90-	=90-	=90-	=90-	=90-	=90-
1FF	.	1A	.	.	.
.	.	.	.	1f	.
1C	.	1G	.	.	.
*	*	*	*	*custos:f	*
!	!	!	!	!LO:TX:t=P:JI:problem= Tu zaczyna się pominięty fragment, dopisany na doklejonej karteczce - teraz na skanie 0056 po stronie lewej (od "de")	!
!	!	!	!	!LO:TX:b:t=[sc-below]	!
!	!	!	!	!LO:TX:a:t=Vi	!
.	.	.	.	2e/	.
=91-	=91-	=91-	=91-	=91-	=91-
!	!	!	!	!LO:TX:t=P:problem=signum congruentiae	!
!	!	!	!	!LO:TX:a:t=de	!
2D/	.	1F	.	2f\	.
1BB-	.	.	.	1d	.
.	.	1G	.	.	.
2C/	.	.	.	2e\	.
=92-	=92-	=92-	=92-	=92-	=92-
*	*	*lig	*	*	*
1FF	.	1A	.	1f	.
*lig	*	*	*	*	*
1F	.	1A	.	2f\	.
.	.	.	.	2c/	.
*	*	*Xlig	*	*	*
=93-	=93-	=93-	=93-	=93-	=93-
1E	.	1c	.	1e	.
*Xlig	*	*	*	*	*
1D	.	1d	.	1f	.
=94-	=94-	=94-	=94-	=94-	=94-
2AA/	.	1c	.	1e	.
2C/	.	.	.	.	.
1BB-	.	1d	.	1f	.
=95-	=95-	=95-	=95-	=95-	=95-
*custos:F	*	*	*	*	*
2FF/	.	1A	.	2f\	.
!LO:LB:g=original	!	!	!	!	!
2F\	.	.	.	2c/	.
2E/	.	1G	.	2e\	.
2G\	.	.	.	2d/	.
!	!	!	!	!LO:LB:g=original	!
=96-	=96-	=96-	=96-	=96-	=96-
1F	.	1A	.	1f	.
!	!	!LO:TX:a:t=LO&colon;SIC&colon;s=1B-	!	!	!
1BB-	.	1B-y	.	2f\	.
.	.	.	.	2d/	.
=97-	=97-	=97-	=97-	=97-	=97-
1F	.	1A	.	2c/	.
.	.	.	.	2d/	.
1C	.	1G	.	2e\	.
.	.	.	.	1g\	.
=98-	=98-	=98-	=98-	=98-	=98-
1FF	.	1A	.	.	.
.	.	.	.	1f	.
1C	.	1G	.	.	.
.	.	.	.	2e\	.
=99-	=99-	=99-	=99-	=99-	=99-
2D/	.	1F	.	2f\	.
1BB-	.	.	.	1d	.
.	.	1G	.	.	.
!	!	!	!	!LO:TX:t=P:problem=tu wracamy na prawą stronę skanu 0056, jedną nutę przed brevis	!
!	!	!	!	!LO:TX:a:t=[segno]	!
2C/	.	.	.	2e\	.
=100-	=100-	=100-	=100-	=100-	=100-
*	*	*lig	*	*	*
0FF	.	1A	.	0f	.
.	.	1A	.	.	.
*	*	*Xlig	*	*	*
!	!	!	!	!LO:LB:g=original	!
=101-	=101-	=101-	=101-	=101-	=101-
*	*	*lig	*	*	*
*	*	*	*	*custos:d	*
1C	.	1G	.	1e	.
!	!	!	!	!LO:LB:g=original	!
1D	.	1F	.	1d	.
*	*	*Xlig	*	*	*
=102-	=102-	=102-	=102-	=102-	=102-
*custos:C	*	*	*	*	*
2BB-/	.	1G	.	2d/	.
!LO:PB:g=original	!	!	!	!	!
1C	.	.	.	1e	.
.	.	1E	.	.	.
1AA/	.	.	.	1c\	.
=103-	=103-	=103-	=103-	=103-	=103-
.	.	1F	.	.	.
2BB-/	.	.	.	2d/	.
2C/	.	1E	.	2e/	.
2AA/	.	.	.	2c/	.
=104-	=104-	=104-	=104-	=104-	=104-
*	*	*custos:F	*	*	*
1BB-	.	1D	.	1d	.
!	!	!LO:LB:g=original	!	!	!
2AA/	.	1F	.	2c/	.
2FF/	.	.	.	1c\	.
=105-	=105-	=105-	=105-	=105-	=105-
*	*	*lig	*	*	*
1GG	.	1D	.	.	.
!	!	!	!	!LO:TX:a:t=LO&colon;SIC&colon;s=2B-	!
.	.	.	.	2B-y/	.
1AA	.	1C	.	2c/	.
.	.	.	.	2F/	.
*	*	*Xlig	*	*	*
=106-	=106-	=106-	=106-	=106-	=106-
*	*	*lig	*	*	*
1GG	.	1D	.	1G	.
1G	.	1C	.	1E	.
*	*	*Xlig	*	*	*
=107-	=107-	=107-	=107-	=107-	=107-
2F/	.	1D	.	2D/	.
1D	.	.	.	1d	.
.	.	1F	.	.	.
*	*	*	*	*custos:A	*
2F/	.	.	.	2A/	.
=108-	=108-	=108-	=108-	=108-	=108-
*custos:C	*	*	*	*	*
!	!	!	!	!LO:TX:a:t=LO&colon;SIC&colon;s=2B-	!
2G\	.	1E	.	2B-y/	.
!LO:LB:g=original	!	!	!	!	!
2C/	.	.	.	2c/	.
1D	.	1F	.	1A	.
=109-	=109-	=109-	=109-	=109-	=109-
*	*	*lig	*	*	*
!	!	!	!	!LO:TX:a:t=LO&colon;SIC&colon;s=2B-	!
2GG/	.	1G	.	2B-y/	.
1C	.	.	.	1G	.
.	.	1E	.	.	.
1AA/	.	.	.	2c/	.
*	*	*Xlig	*	*	*
=110-	=110-	=110-	=110-	=110-	=110-
.	.	1F	e-	2A/	.
2FF/	.	.	.	1d	.
2GG/	.	1E	-lei-	.	.
2AA/	.	.	.	2c/	.
=111-	=111-	=111-	=111-	=111-	=111-
2BB-/	.	00.D	-ſon	2d/	.
!	!	!	!	!LO:TX:a:t=LO&colon;SIC&colon;s=2B-	!
2GG/	.	.	.	2B-y/	.
1D	.	.	.	1A	-ley-
=112-	=112-	=112-	=112-	=112-	=112-
!	!	!	!	!LO:TX:a:t=LO&colon;SIC&colon;s=2B-	!
2GG/	ley-	.	.	2B-y/	.
2AA/	.	.	.	2c/	.
2BB-/	.	.	.	2d/	.
2C/	.	.	.	2c/	.
=113-	=113-	=113-	=113-	=113-	=113-
0D;	-son	.	.	0A;	-son
==	==	==	==	==	==
*-	*-	*-	*-	*-	*-
!!!RDF**kern: < = below
!!!system-decoration: [(s1,s2,s3)]
!!!ENC: Anastazja Marusiak
!!!END: 2022-01-18
!!!ENC: Urszula Świątek
!!!END: 2022-01-24
